X:129
M:4/4
L:1/4
K:C
D2 A2 | (A3/2 G/ A) D | F2 F2 | (F2 E2) | D2 z2 | F F F F | G2 G2 | (A3/2 G/ F E) | D4 | F F F F | G2 G2 | (A3/2 G/ F2) | !sintro!c d (c/ B/ A) | F2 G2 | (A3/2 G/ F) E | D4 !eintro!|]
